X: 17110
T: Heidi's Dream
R: jig
M: 6/8
K: Bminor
|:dfd' c'af|e2d edA|B3 BdB|f2 e3 f|
dfd' c'af|e2d efa|b3 baf|1 f2 e3 f:|2 e3 edc||
|:B3 BAF|ABd BAF|D3- DED|FA E2 FA|
B3 BAF|ABd efa|1 b2 a2 ab|f2 e2 dc:|2 b3 baf|e6||

